X: 38729
T: Street Player, The
R: reel
M: 4/4
K: Dmajor
|:DFAd f3e|dcde fdAF|G2 FG E3F|GBAF EFGE|
FD D2 FAGA|BG G2 Bcdg|fgaf gecd|1 eddc dBAF:|2 eddc d2 Ad||
|:fddc dfaf|gfed cdeg|f3a gfed|cAAG A2 EG|
FD D2 FA A2|BG G2 Bcdg|fgaf gecd|1 eddc d2 Ad:|2 eddc d4||

